src/ui/playground.svg

<?xml version="1.0" encoding="UTF-8"?><svg xmlns="http://www.w3.org/2000/svg" width="32" height="32" viewBox="0 0 32 32"><defs><style>.uuid-7d694f33-be8f-4897-8912-0efcfedf2011{fill:none;}.uuid-fbd6f34d-7806-440a-8b64-66de8bb9af53{fill:#151515;}</style></defs><g id="uuid-efbe53e7-d4fa-487f-993f-9c06ce5f88a1"><rect class="uuid-7d694f33-be8f-4897-8912-0efcfedf2011" width="32" height="32"/></g><g id="uuid-cdbe7d74-0b92-428f-b64c-6740b4601de9"><path class="uuid-fbd6f34d-7806-440a-8b64-66de8bb9af53" d="M4,13h9.5c.82715,0,1.5-.67285,1.5-1.5V2c0-.4043-.24316-.76953-.61719-.92383-.37305-.15625-.80273-.07031-1.08984.2168L3.29297,11.29297c-.28613.28613-.37207.71582-.2168,1.08984.1543.37402.51953.61719.92383.61719ZM13,4.41406v6.58594h-6.58594l6.58594-6.58594Z"/><path class="uuid-fbd6f34d-7806-440a-8b64-66de8bb9af53" d="M28.5,16H3.5c-.82715,0-1.5.67285-1.5,1.5v11c0,.82715.67285,1.5,1.5,1.5h5.5c.55273,0,1-.44727,1-1,0-3.30859,2.69141-6,6-6s6,2.69141,6,6c0,.55273.44727,1,1,1h5.5c.82715,0,1.5-.67285,1.5-1.5v-11c0-.82715-.67285-1.5-1.5-1.5ZM28,28h-4.0625c-.49316-3.94043-3.86523-7-7.9375-7s-7.44434,3.05957-7.9375,7h-4.0625v-10h24v10Z"/><path class="uuid-fbd6f34d-7806-440a-8b64-66de8bb9af53" d="M19.5,13h8c.82715,0,1.5-.67285,1.5-1.5V3.5c0-.82715-.67285-1.5-1.5-1.5h-8c-.82715,0-1.5.67285-1.5,1.5v8c0,.82715.67285,1.5,1.5,1.5ZM20,4h7v7h-7v-7Z"/></g></svg>

<svg xmlns="http://www.w3.org/2000/svg" viewBox="0 0 32 32">
  <path d="M4 13h9.5c.827 0 1.5-.673 1.5-1.5V2a.999.999 0 0 0-1.707-.707l-10 10A1 1 0 0 0 4 13Zm9-8.586V11H6.414L13 4.414ZM28.5 16h-25c-.827 0-1.5.673-1.5 1.5v11c0 .827.673 1.5 1.5 1.5H9a1 1 0 0 0 1-1c0-3.309 2.691-6 6-6s6 2.691 6 6a1 1 0 0 0 1 1h5.5c.827 0 1.5-.673 1.5-1.5v-11c0-.827-.673-1.5-1.5-1.5ZM28 28h-4.062c-.493-3.94-3.865-7-7.938-7s-7.444 3.06-7.938 7H4V18h24v10Zm-8.5-15h8c.827 0 1.5-.673 1.5-1.5v-8c0-.827-.673-1.5-1.5-1.5h-8c-.827 0-1.5.673-1.5 1.5v8c0 .827.673 1.5 1.5 1.5Zm.5-9h7v7h-7V4Z"/>
</svg>
